icons/star-24.svg

<svg width="24" height="24" viewBox="0 0 24 24" xmlns="http://www.w3.org/2000/svg">
  <path fill-rule="evenodd" clip-rule="evenodd" d="M12 0.25C12.2855 0.25 12.5462 0.412074 12.6726 0.668076L15.7309 6.8649L22.5695 7.85861C22.852 7.89966 23.0867 8.09754 23.1749 8.36905C23.2631 8.64056 23.1896 8.93861 22.9851 9.13788L18.0367 13.9614L19.2048 20.7724C19.2531 21.0538 19.1374 21.3381 18.9065 21.5059C18.6755 21.6738 18.3693 21.6959 18.1166 21.563L12 18.3473L5.88337 21.563C5.63068 21.6959 5.32449 21.6738 5.09353 21.5059C4.86257 21.3381 4.7469 21.0538 4.79516 20.7724L5.96333 13.9614L1.01487 9.13788C0.810444 8.93861 0.736871 8.64056 0.82509 8.36905C0.913309 8.09754 1.14802 7.89966 1.43053 7.85861L8.26914 6.8649L11.3275 0.668076C11.4538 0.412074 11.7145 0.25 12 0.25ZM12 2.69466L9.43974 7.88233C9.33049 8.10369 9.11932 8.25712 8.87503 8.29261L3.1501 9.12449L7.2927 13.1625C7.46947 13.3348 7.55013 13.5831 7.5084 13.8264L6.53046 19.5282L11.651 16.8362C11.8695 16.7213 12.1305 16.7213 12.349 16.8362L17.4695 19.5282L16.4916 13.8264C16.4499 13.5831 16.5305 13.3348 16.7073 13.1625L20.8499 9.12449L15.125 8.29261C14.8807 8.25712 14.6695 8.10369 14.5603 7.88233L12 2.69466Z"/>
</svg>

<svg xmlns="http://www.w3.org/2000/svg" width="24" height="24" viewBox="0 0 24 24"><path fill-rule="evenodd" d="M12 .25a.75.75 0 01.673.418l3.058 6.197 6.839.994a.75.75 0 01.415 1.279l-4.948 4.823 1.168 6.811a.75.75 0 01-1.088.791L12 18.347l-6.117 3.216a.75.75 0 01-1.088-.79l1.168-6.812-4.948-4.823a.75.75 0 01.416-1.28l6.838-.993L11.328.668A.75.75 0 0112 .25zm0 2.445L9.44 7.882a.75.75 0 01-.565.41l-5.725.832 4.143 4.038a.75.75 0 01.215.664l-.978 5.702 5.121-2.692a.75.75 0 01.698 0l5.12 2.692-.977-5.702a.75.75 0 01.215-.664l4.143-4.038-5.725-.831a.75.75 0 01-.565-.41L12 2.694z"/></svg>
